X:194
T:Cupboard Hornpipe,aka. VWMLa.194, The
%%VWML:Anon2-3049-p120-0
F:http://www.vwml.org/record/Anon2/3049/p120
R:Hornpipe
S:Anon. MS, late 18thC, Vaughan Williams Mem. Library
N:My title, tune found in cupboard, C# House..CGP..
O:England;Yorkshire
Z:vmp/efdss.Simon Wilson. Reviewed PJH 2008.
M:C|
L:1/8
Q:1/2=80
K:Eb
(EG).B.e (e2d2)|(B,E).A.c (c2B2)|\
BGFE DCDE|FGAF EDCB,|\
(EG).B.e (e2d2)|(CE).A.c (c2B2)|\
(A,C).F.A GBGE|B,FDF E4:|
|geBG (EG).e.g|fdBF (DF).B.d|\
fdcB gbge|dfGc (B=A).G.F|\
(Bd).f.b (b2a2)|(GB).e.g (g2f2)|\
DFBd GBeg|!D.C.!fd=Ac B4|]
W:Untitled in MS.
